!!!!SEGMENT: pl-kc--40102-iii-1-saf--001-002_zielenski-mikolaj--offertoria-totius-anni-in-secunda-missa-nat-dni-deus-firmauit-orbem-terrae.krn
!!!cenid: 16xx:1481
!!!COM: Zieleński, Mikołaj
!!!COM-rismid: pe30013481
!!!CDT:
!!!CNT: Polish
!!!GTL: Offertoria totius anni
!!!OTL: In secunda Missa Nat. Dni/Deus firmauit orbem terrae
!!!OMV: 002
!!!PDT: 1611
!!!AGN:
!!!SMS-siglum: PL-Kc
!!!SMS-shelfmark: 40102 III/1 Saf.
!!!SMS-shelfwork: 001-002 G
!!!SMS-variant:
!!!SMS-altvar:
!!!NIFC-rismid: 990069886
!!!URL-scan: https://cyfrowe.mnk.pl/dlibra/publication/24235/edition/23926/content?ref=desc
!!!ONB-nifc: UWAGA: str. 6. Uwaga: W xml metrum 2/1 do źródłowego C| i odpowiednio 3/1 do 3/2
!!!key:
**kern	**kern	**kern	**kern
*group1	*group1	*group1	*group1
*part4	*part3	*part2	*part1
*staff4	*staff3	*staff2	*staff1
*I""Organo	*I""Organo	*I""Organo	*I""Organo
*I''org	*I''org	*I''org	*I''org
*Iorgan	*Iorgan	*Iorgan	*Iorgan
*ICklav	*ICklav	*ICklav	*ICklav
*clefF4	*clefC1	*clefF3	*clefG2
*k[b-]	*k[b-]	*k[b-]	*k[b-]
*F:	*F:	*F:	*F:
*M2/1	*M2/1	*M2/1	*M2/1
*met(C|)	*met(C|)	*met(C|)	*met(C|)
=1	=1	=1	=1
!	!LO:TX:a:t=Secundus Chorus.	!LO:TX:a:t=Deus firmauit orbem terrae.	!LO:TX:a:t=A 8. In ſecundă Miſsă Nat. Dňi, ſeu in Aurora.
1FF	1a	00r	00r
1.C	1.g	.	.
=2-	=2-	=2-	=2-
.	.	.	.
2C/	2g/	.	.
2AA/	4cc\	.	.
.	4b-\	.	.
2AA/	4a\	.	.
.	4g/	.	.
*custos:D	*custos:f	*custos:C	*custos:cc
!!LO:LB:g=original
=3	=3	=3	=3
2.D/	4f/	00r	00r
.	4d/	.	.
.	2a\	.	.
4C/	.	.	.
4BB-/	2d/	.	.
4AA/	.	.	.
4GG/	2.b-\	.	.
4AA/	.	.	.
=4-	=4-	=4-	=4-
4BB-/	.	.	.
4GG/	4b-\	.	.
2D/	2.a\	.	.
2GG/	.	.	.
.	8g/	.	.
.	8f/	.	.
2GG/	2g/	.	.
=5	=5	=5	=5
2.D/	2.a\	00r	00r
4D/	4a\	.	.
2AA/	2cc\	.	.
4C/	4g/	.	.
4.GG/	2b-\	.	.
=6-	=6-	=6-	=6-
.	.	.	.
8AA/	.	.	.
4BB-/	4f/	.	.
2FF/	2.a\	.	.
2.AA/	.	.	.
.	4g/	.	.
.	[y2f/	.	.
4BB-/	.	.	.
=7	=7	=7	=7
!	!LO:N:xstem:cue	!	!
1C	4f/]	1C	1cc
.	8e/	.	.
.	8d/	.	.
.	2e/	.	.
1FF	1f	1.F	1.a
=8-	=8-	=8-	=8-
0r	0r	.	.
.	.	2F/	2a/
.	.	2D/	4ff\
.	.	.	4ee\
.	.	2D/	4dd\
.	.	.	4cc\
=9	=9	=9	=9
00r	00r	2.G\	4b-/
.	.	.	4g/
.	.	.	2dd\
.	.	4F/	.
.	.	4E-X/	2g/
.	.	4D/	.
.	.	4C/	2.ee-X\
.	.	4D/	.
=10-	=10-	=10-	=10-
.	.	4E-X/	.
.	.	4C/	4ee-\
.	.	2G\	2.dd\
.	.	1C	.
.	.	.	8cc\
.	.	.	8b-\
.	.	.	2cc\
=11	=11	=11	=11
00r	00r	2.G\	2.dd\
.	.	4G\	4dd\
.	.	2D/	2ff\
.	.	4F/	4cc\
.	.	4.C/	2ee-X\
=12-	=12-	=12-	=12-
.	.	.	.
.	.	8D/	.
.	.	4E-X/	4b-/
.	.	2BB-/	2.dd\
.	.	2.D/	.
.	.	.	4cc\
.	.	.	[y2b-/
.	.	4Eny/	.
=13	=13	=13	=13
!	!	!	!LO:N:xstem:cue
1FF	1cc	1F	4b-/]
.	.	.	8a/
.	.	.	8g/
.	.	.	2a/
1BB-	2b-\	2F/	1b-
.	2dd\	1F	.
=14-	=14-	=14-	=14-
2r	4cc\	.	1ff
.	4b-\	.	.
2FF/	4a\	2F/	.
.	8g/	.	.
.	8f/	.	.
1C	2g/	2C/	2ee\
.	2cc\	4G\	2ee\
.	.	4F/	.
=15	=15	=15	=15
2r	1.cc	4E/	4gg\
.	.	4D/	4ff\
2C/	.	1E	4ee\
.	.	.	4dd\
*lig	*	*	*
1AA	.	.	4cc\
.	.	.	4a/
.	2cc\	2C/	2ee\
=16-	=16-	=16-	=16-
1.D	1dd	2.F/	2dd\
.	.	.	2.ff\
.	.	4E/	.
.	1a	2D/	.
.	.	.	4ff\
*Xlig	*	*	*
2AA/	.	2C/	[y2ee\
=17	=17	=17	=17
*	*	*lig	*
!	!	!	!LO:N:xstem:cue
2.FF/	0a	1AA	4ee\]
.	.	.	4dd\
.	.	.	2.dd\
4GG/	.	.	.
1AA	.	1E	.
.	.	.	8cc#X\
!	!	!	!LO:SIC:v:s=8bn\
.	.	.	8b-\
.	.	.	2cc#\
*	*	*Xlig	*
=18-	=18-	=18-	=18-
2DD/	2f#X/	1D	1dd
2D/	4r	.	.
.	4a\	.	.
2BB-/	2b-\	1r	1r
4AA/	4cc\	.	.
[>4BB-/	[>4dd\	.	.
=19	=19	=19	=19
4BB-/]	4dd\]	1r	1r
4C/	4cc\	.	.
!	!LO:N:acc=#	!	!
4.GG/	4.bn\	.	.
8GG/	8b\	.	.
1C	1cc	2r	2r
.	.	2c\	2cc\
=20-	=20-	=20-	=20-
0r	0r	2B-\	4.dd\
.	.	.	8ee\
.	.	4A\	4ff\
.	.	2B-\	2ff\
.	.	4c\	4ee\
.	.	4.G\	4.dd\
.	.	8G\	8dd\
=21	=21	=21	=21
2r	2r	2c\	2.ee\
2C/	2cc\	2G\	.
.	.	.	4ee\
2BB-/	2.dd\	2.D/	2ff\
2GG/	.	.	4gg\
.	4dd\	4D/	4ff\
=22-	=22-	=22-	=22-
2C/	2g/	2E/	4ee\
.	.	.	4cc\
2FF/	1cc	1C	2.ff\
2.C/	.	.	.
.	.	.	8ee\
.	.	.	8dd\
.	2cc\	2C/	4.ee\
4C/	.	.	.
.	.	.	8ee\
=23	=23	=23	=23
1FF	1cc	2F/	2ff\
.	.	2F/	2cc\
1r	1r	1.B-	1.dd
=24-	=24-	=24-	=24-
0r	0r	.	.
.	.	2A\	2cc\
.	.	2B-\	2dd\
.	.	2c\	2ee\
=25	=25	=25	=25
00r	00r	2.d\	2.ff\
.	.	4c\	4ee\
.	.	2B-\	2dd\
.	.	2B-\	2dd\
=26-	=26-	=26-	=26-
.	.	2A\	1cc
.	.	2F/	.
.	.	2c\	4r
.	.	.	4g/
.	.	4r	2cc\
.	.	4C/	.
*custos:FF	*custos:a	*custos:F	*custos:a
!!LO:LB:g=original
=27	=27	=27	=27
00r	00r	2F/	4r
.	.	.	4a/
.	.	4r	2dd\
.	.	4BB-/	.
.	.	2.E-X/	2r
.	.	.	2b-/
.	.	4E-/	.
=28-	=28-	=28-	=28-
.	.	2.C/	2.ee-X\
!	!	!LO:N:acc=#	!
.	.	4BBn/	4dd\
.	.	2C/	2cc\
!	!	!	!LO:N:acc=#
.	.	2G\	2bn/
=29	=29	=29	=29
0r	0r	2C/	2.cc\
.	.	2F/	.
.	.	.	4cc\
.	.	2.D/	2.ff\
.	.	4C/	4ee\
=30-	=30-	=30-	=30-
1r	1r	2BB-/	2dd\
.	.	2BB-/	2dd\
2r	2r	1F	1cc
2FF/	2a\	.	.
=31	=31	=31	=31
1.C	1.g	00r	00r
!LO:N:acc=#	!	!	!
2BBn/	2d/	.	.
=32-	=32-	=32-	=32-
2C/	2e/	.	.
2AA/	2f#X/	.	.
1GG	1g	.	.
=33	=33	=33	=33
2.D/	2f/	00r	00r
.	2.a\	.	.
4C/	.	.	.
2BB-/	.	.	.
.	8g/	.	.
.	8f/	.	.
2BB-/	2g/	.	.
=34-	=34-	=34-	=34-
2AA/	1a	.	.
2FF/	.	.	.
2C/	4r	.	.
.	4e/	.	.
4r	2g/	.	.
4GG/	.	.	.
=35	=35	=35	=35
2D/	4r	00r	00r
.	4f/	.	.
4r	2a\	.	.
4AA/	.	.	.
2.C/	2r	.	.
.	2g/	.	.
4C/	.	.	.
=36-	=36-	=36-	=36-
2.GG/	2.b-\	.	.
4GG/	4a\	.	.
2GG/	2g/	.	.
2D/	2f#X/	.	.
=37	=37	=37	=37
2GG/	2g/	0r	0r
2C/	2g/	.	.
2.AA/	2.cc\	.	.
4GG/	4b-\	.	.
=38-	=38-	=38-	=38-
2FF/	2a\	1r	1r
2FF/	2a\	.	.
1C	1g	2r	2r
.	.	2c\	2ee\
=39	=39	=39	=39
2r	2r	2.F/	1.ff
2FF/	2cc\	.	.
.	.	4E/	.
1.BB-	1.dd	2D/	.
.	.	2C/	2ee\
=40-	=40-	=40-	=40-
.	.	1.D	2dd\
2AA/	2cc\	.	2a/
2GG/	2b-\	.	1b-
2GG/	4a\	2E/	.
.	4g/	.	.
=41	=41	=41	=41
2.D/	2a\	2.F/	2a/
.	2.dd\	.	1ff
4C/	.	4E/	.
2BB-/	.	2D/	.
.	4cc\	.	.
2C/	2.cc\	2G\	2ee\
=42-	=42-	=42-	=42-
1GG	.	1G	1dd
!	!LO:N:acc=#	!	!
.	8bn\	.	.
.	8a\	.	.
.	2b\	.	.
1C	1cc	2G\	2cc\
.	.	2C/	2ee\
=43	=43	=43	=43
4r	4r	2F/	2ff\
4FF/	4a\	.	.
2C/	2g/	4r	4r
.	.	4c\	4ee\
4r	4r	2G\	2ff\
4GG/	4b-\	.	.
2D/	2a\	4r	4r
.	.	4d\	4dd\
=44-	=44-	=44-	=44-
4r	4r	2B-\	2ff\
4BB-/	4dd\	.	.
2F\	2cc\	4r	4r
.	.	4F/	4cc\
2r	2r	4.C/	4.ee-X\
!	!	!LO:N:acc=#	!
.	.	8BBn/	8dd\
4r	4r	4C/	4cc\
!	!	!	!LO:N:acc=#
4G\	4dd\	4G\	4bn/
=45	=45	=45	=45
4.C/	4.ee-X\	2G\	2cc\
!LO:N:acc=#	!	!	!
8BBn/	8dd\	.	.
4C/	4cc\	4r	4r
4GG/	4bn\	4G\	4dd\
2G\	2cc\	4.C/	4.ee-X\
!	!	!LO:N:acc=#	!
.	.	8BBn/	8dd\
4r	4r	4C/	4cc\
!	!	!	!LO:N:acc=#
4G\	4dd\	4G\	4bn/
=46-	=46-	=46-	=46-
4.C/	4.ee-X\	2G\	2cc\
!LO:N:acc=#	!	!	!
8BBn/	8dd\	.	.
4C/	4cc\	4r	4r
!	!LO:TX:t=P:problem=# błędnie przed poprzednią nutą	!	!
!	!LO:N:acc=#	!	!
4GG/	4bn\	4G\	4dd\
2C/	2c\	1C	1eeny
2C/	2g/	.	.
=47	=47	=47	=47
1FF	1a	2r	2r
.	.	2F/	2cc\
1r	1r	1BB-	1dd
=48-	=48-	=48-	=48-
4r	4r	2r	2r
4BB-/	4f/	.	.
4.GG/	4.b-\	4r	4r
.	.	4A\	4dd\
8FF#X/	8a\	.	.
4GG/	4g/	4.B-\	4.dd\
4D/	4f#X/	.	.
.	.	8A\	8cc\
2.GG/	2g/	4G\	4b-/
.	.	4F#X/	4a/
=49	=49	=49	=49
.	4r	2G\	2g/
4D/	4a\	.	.
4.GG/	4.b-\	4r	4r
.	.	4A\	4dd\
8FF#X/	8a\	.	.
4GG/	4g/	4.B-\	4.dd\
4D/	4f#X/	.	.
.	.	8A\	8cc\
2GG/	2g/	4G\	4b-\
.	.	4F#X/	4a/
*custos:C	*custos:g	*custos:G	*custos:g
!!LO:LB:g=original
=50-	=50-	=50-	=50-
1r	1r	2G\	2g/
.	.	2G\	2dd\
2r	2r	2C/	2ee\
2C/	2g\	2C/	2ee\
=51	=51	=51	=51
1FF	1cc	2.C/	2.ff\
.	.	4F/	4cc\
1r	1r	4.D/	4.ff\
.	.	8C#X/	8ee\
.	.	4D/	4dd\
.	.	4G\	4dd\
=52-	=52-	=52-	=52-
2r	2r	1Cny	1ee
4r	4r	.	.
4C/	4g/	.	.
4.AA/	4.cc\	2r	2r
8GG/	8b-\	.	.
4FF/	4a\	4r	4r
4C/	4g/	4E/	4cc\
=53	=53	=53	=53
2FF/	2a\	4.A\	4.cc\
.	.	8G\	8b-/
4r	4r	4F/	4a/
4C/	4cc\	4G\	4g/
4.AA/	4.cc\	2.C/	2a/
8GG/	8b-\	.	.
4FF/	4a\	.	4r
4C/	4g/	4E/	4cc\
=54-	=54-	=54-	=54-
1FF	1a	4.A\	4.cc\
.	.	8G\	8b-/
.	.	4F/	4a/
.	.	4E/	4g/
2r	2r	2F/	2f/
2C/	2g/	2C/	2cc\
=55	=55	=55	=55
2.AA/	1.a	1.C	1.cc
4GG/	.	.	.
1FF	.	.	.
.	2a\	2C/	2dd\
=56-	=56-	=56-	=56-
0C	1cc	1C	2ee\
.	.	.	2.ff\
.	1cc	1C	.
.	.	.	8ee\
.	.	.	8dd\
.	.	.	2ee\
=57-	=57-	=57-	=57-
0FFl	0ccl	0Cl	0ffl
==	==	==	==
*-	*-	*-	*-
!!!system-decoration: *
!!!RDF**kern: > = above
!!!RDF**kern: < = below
!!!RDF**kern: l = terminal long
!!!AIN: 4 organ
!!!ENC: Berenika Jozajtis
!!!END: 2021-12-11
!!!ENC: Andrzej Kubiczek
!!!END: 2021-12-21
